X:1
T:Worthing, 87.87
T:Worthing, 87.87
T:Johann Abraham Peter Schulz (1747-1800)
T:Public Domain Courtesy of the Cyber Hymnal™
C:Johann Abraham Peter Schulz (1747-1800)
Z:Public Domain
Z:Courtesy of the Cyber Hymnal™
%%score ( 1 2 ) ( 3 4 )
L:1/8
Q:1/4=103
M:4/4
K:F
V:1 treble 
V:2 treble 
V:3 bass 
V:4 bass 
V:1
 [FA]3 [EG] F2 [CF]2 | (EF) (GA) [CG]2 [CF]2 | [Ac]2 [FA]2 [Ac]2 [FA]2 | %3
 ([EG][FA]) ([GB][Ac]) [GB]2 [FA]2 | (fe) (dc) (c>B) [FA]2 | [Fd]2 ([Fc][GB]) [FA]2 [EG]2 | %6
 (c>A) F2 (d>B) [DG]2 | [CF]2 (EG) (G2 F2) |] %8
V:2
 x4 F2 x2 | C2 C2 x4 | x8 | x8 | F2 F2 G2 x2 | x8 | F2 F2 F2 x2 | x2 C2 C4 |] %8
V:3
 [F,C]3 [C,B,] [D,A,]2 [F,A,]2 | (G,A,) (B,C) [F,B,]2 [F,A,]2 | [F,F]2 [F,C]2 [F,F]2 [F,C]2 | %3
 [C,C]2 [C,C]2 [F,C]4 | (DC) (B,A,) (G,C) [F,C]2 | [B,,B,]2 ([A,,C][B,,D]) [C,C]2 [C,C]2 | %6
 [A,C]2 [A,C]2 B,2 [B,,B,]2 | [C,A,]2 (G,B,) (B,2 A,2) |] %8
V:4
 x8 | C,2 C,2 x4 | x8 | x8 | F,2 F,2 E,2 x2 | x8 | x4 B,2 x2 | x2 C,2 F,4 |] %8

